X:1
T:Title
%%score { ( 1 3 ) | 2 }
L:1/8
Q:1/4=100
M:6/8
K:F
V:1 treble nm="Grand Piano"
V:3 treble 
V:2 bass 
V:1
 AAA B2 B | A3 F3 | ccc B2 A | [FA]3 [EG]3 | FFF [^CE]2 [=B,D] | [^CE]6 | DDD E2 D | C3 F3 | %8
w: D.~O.~Teasley * * * *||||||||
 [FA][FA][FA] [FA]2 [EG] | [CF]6 | .[Ac]6 | .[Ac]6 | .[EG]6 | [FA]3 z3 | %14
w: ||||||
 [Bd]-[FB-d-][FB-d-] [FBd]Bd | .[Ac]6 | .[EG]6 | F6 |] %18
w: ||||
V:2
 [F,CF][F,CF][F,CF] [F,DF]2 [F,^CF] | [F,CF]3 [F,A,C]3 | [A,CF][A,CE][A,CF] [G,CE]2 [F,CF] | %3
 [C,C]3 [C,B,]3 | [D,A,D][D,A,D][D,A,D] [A,,A,]2 [A,,A,] | [A,,A,]6 | %6
 [B,,F,B,][B,,F,B,][B,,F,B,] [B,,F,C]2 [B,,F,B,] | [F,A,]3 [F,A,C]3 | %8
 [C,C][C,C][C,C] [C,C]2 [C,B,] | [F,A,]6 | [F,C]F,F, F,[F,CF][F,A,C] | [F,C]F,F, F,[F,CF][F,A,C] | %12
 [C,C]C,C, C,C,C, | F,F,F, F,3 | B,B,B, B,[K:treble][B,DF][B,FB] | [F,F]F,F, F,[F,CF][F,A,C] | %16
 [C,B,]C,C, C,[C,A,D][C,B,C] | [F,A,C][F,B,][F,B,] .[F,A,]3 |] %18
V:3
 x6 | x6 | x6 | x6 | x6 | x6 | x6 | x6 | x6 | x6 | z CC CAF | z CC CAF | z CC C[A,DF][CEG] | %13
 CCC [FAc]3 | .F3 z3 | z FF FAF | z B,B, B,FG | z D^C .=C3 |] %18

